X: 30663
T: MISSISSIPPI HORNPIPE
C:
%R: hornpipe, reel
B: Elias Howe "The Musician's Companion" Part 3 1844 p.66 #3
S: http://imslp.org/wiki/The_Musician's_Companion_(Howe,_Elias)
S: The above file has page 66 illegible; a readable copy was found at:
S: https://archive.org/stream/firstthirdpartof03howe/#page/66/mode/1up
Z: 2015 John Chambers <jc:trillian.mit.edu>
M: 2/4
L: 1/16
K: Bb
% - - - - - - - - - - - - - - - - - - - - - - - - -
FG |\
B2ba gfdB | ABcB AFGA | BAcB dced | fgfd ecAc |\
B2ba gfdB | ABcB AGFE | DBEB FBGB | ABcA B2 :|
|: FE |\
DFFF BFdF | EGGG cGeG | B2gf edcB | defg ecAF |\
DFFF BGdB | EGGG cGeG | DBEB FBGB | ABcA B2 :|
% - - - - - - - - - - - - - - - - - - - - - - - - -
